X:31
%%etbk:tnset id:11,pos:2,rep:3x,ant:
%%etbk:wsite https://thesession.org/tunes/976
%%etbk:video src:ytube,cde:t5bCOIQd2nk,desc:
%%etbk:color #eee6ff
%%etbk:pldat 2016-07-25T19:09,2015-03-24T17:29,2015-01-26T19:08,2015-01-24T14:11,2015-01-18T11:36,2014-12-07T13:49,2014-12-06T15:50,2014-05-07T18:45,2014-03-22T16:15,2014-02-07T16:39,2013-10-02T17:12,2013-05-07T19:40,2013-05-01T16:44,2013-04-30T16:30
T: Old Maids Of Galway, The
Z: Piano Box Version by Martin Fleischmann
H: Created 2013-02-19 /  Last Modified 2016-07-25
M: 4/4
L: 1/8
R: reel
K: Emin
"em"!5!e!3!B!2!B!3!B e2 dB|"D"!2!A2 GA BA A2|[1 "em"!5!e!3!BBB e2dB|"D"!2!A2 GA "G"BGG2:|[2 "G"!1!G!2!B~B2 !1!GB!4!d!2!B|"D"!1!A2 !2!G!1!A "G"!2!B!1!G G2|
"G"!4!g2 fg eg!1!d2|!4!g2 fg "D"e!5!aa2|[1 "G"!4!g2 fg e2!1!d!3!B|"D"!2!A2 GA "G"BG G2:|[2 "G"!3!g!5!bag !2!e2!1!d!3!B|"D"!2!A2 GA "G"BG G2|


